packages/core/src/svgs/tokens/branded/CGPT.svg

<svg width="24" height="24" viewBox="0 0 24 24" fill="none" xmlns="http://www.w3.org/2000/svg">
<path d="M2 19.04L3.99999 17.6667V6.33334L6.33332 4.00001H17.9332L19.9999 6.33334L21.2533 5.58C21.4533 5.45333 21.4866 5.16667 21.32 4.99999L18.5334 2.10666C18.5004 2.07286 18.4609 2.04601 18.4175 2.02769C18.3739 2.00938 18.3273 1.99995 18.28 2H5.35999C5.31278 1.99995 5.26604 2.00938 5.22253 2.02769C5.17902 2.04601 5.13962 2.07286 5.10666 2.10666L2.10666 5.22667C2.03999 5.29334 2 5.38667 2 5.48666V19.04Z" fill="url(#paint0_linear_364_11020)"/>
<path d="M6.33357 4L4.00024 6.33333V17.7134L6.33357 20H17.6669L20.0002 17.6667V6.28666L18.0002 4H6.33357Z" fill="#E1E7CD"/>
<path d="M21.64 11.6266H19.9999V17.56L17.6666 20H6.33332L3.99999 17.6667L2 19.0399L4.75333 21.8933C4.82 21.96 4.91333 22 5.00667 22H18.28C18.3733 22 18.4666 21.96 18.5334 21.8933L21.8934 18.4067C21.9599 18.3399 21.9999 18.2399 21.9999 18.1399V12C21.9999 11.7999 21.84 11.6266 21.64 11.6266Z" fill="url(#paint1_linear_364_11020)"/>
<path d="M9.33362 14.6667C10.07 14.6667 10.6669 14.0696 10.6669 13.3332C10.6669 12.597 10.07 12 9.33362 12C8.5972 12 8.00024 12.597 8.00024 13.3332C8.00024 14.0696 8.5972 14.6667 9.33362 14.6667Z" fill="#1A1A24"/>
<path d="M14.6668 14.6667C15.4032 14.6667 16.0002 14.0696 16.0002 13.3332C16.0002 12.597 15.4032 12 14.6668 12C13.9305 12 13.3335 12.597 13.3335 13.3332C13.3335 14.0696 13.9305 14.6667 14.6668 14.6667Z" fill="#1A1A24"/>
<defs>
<linearGradient id="paint0_linear_364_11020" x1="21.1213" y1="4.17527" x2="1.02635" y2="17.0056" gradientUnits="userSpaceOnUse">
<stop stop-color="#684BFD"/>
<stop offset="0.28" stop-color="#4663E9"/>
<stop offset="0.52" stop-color="#4380E8"/>
<stop offset="0.84" stop-color="#17DAC6"/>
<stop offset="1" stop-color="#18D6C9"/>
</linearGradient>
<linearGradient id="paint1_linear_364_11020" x1="21.2867" y1="2.71979" x2="1.41965" y2="7.79331" gradientUnits="userSpaceOnUse">
<stop stop-color="#F17165"/>
<stop offset="0.25" stop-color="#F19C5C"/>
<stop offset="0.47" stop-color="#E9BE4D"/>
<stop offset="1" stop-color="#E7C653"/>
</linearGradient>
</defs>
</svg>

<svg xmlns="http://www.w3.org/2000/svg" width="24" height="24" fill="none" viewBox="0 0 24 24">
    <path fill="url(#CGPT__a)" d="m2 19.04 2-1.373V6.333L6.333 4h11.6L20 6.333l1.253-.753A.377.377 0 0 0 21.32 5l-2.787-2.893A.36.36 0 0 0 18.28 2H5.36a.35.35 0 0 0-.253.107l-3 3.12a.37.37 0 0 0-.107.26z"/>
    <path fill="#E1E7CD" d="M6.334 4 4 6.333v11.38L6.334 20h11.333L20 17.667V6.287L18 4z"/>
    <path fill="url(#CGPT__b)" d="M21.64 11.627H20v5.933L17.667 20H6.333L4 17.667 2 19.04l2.753 2.853c.067.067.16.107.254.107H18.28c.093 0 .187-.04.253-.107l3.36-3.486A.4.4 0 0 0 22 18.14V12a.37.37 0 0 0-.36-.373"/>
    <path fill="#1A1A24" d="M9.334 14.667a1.333 1.333 0 1 0 0-2.667 1.333 1.333 0 0 0 0 2.667m5.333 0a1.334 1.334 0 1 0 0-2.667 1.334 1.334 0 0 0 0 2.667"/>
    <defs>
        <linearGradient id="CGPT__a" x1="21.121" x2="1.026" y1="4.175" y2="17.006" gradientUnits="userSpaceOnUse">
            <stop stop-color="#684BFD"/>
            <stop offset=".28" stop-color="#4663E9"/>
            <stop offset=".52" stop-color="#4380E8"/>
            <stop offset=".84" stop-color="#17DAC6"/>
            <stop offset="1" stop-color="#18D6C9"/>
        </linearGradient>
        <linearGradient id="CGPT__b" x1="21.287" x2="1.42" y1="2.72" y2="7.793" gradientUnits="userSpaceOnUse">
            <stop stop-color="#F17165"/>
            <stop offset=".25" stop-color="#F19C5C"/>
            <stop offset=".47" stop-color="#E9BE4D"/>
            <stop offset="1" stop-color="#E7C653"/>
        </linearGradient>
    </defs>
</svg>
